X: 16858
T: Hasse A's
R: waltz
M: 3/4
K: Dmixolydian
|:A6|d2 c2 cB|A6|G2 F2 G2|A2 dc A2|AG ~F2 EF|D6|~G2 F2 G2|
A6|d2 c2 cB|A6|G2 F2 G2|A2 dc A2|AG ~F2 EF|G6|~G2 F2 G2:|
K:Dminor
|:A2 F2 FA|FD FA FD|EG EC EG|EC =B,A, B,C|D2 G,2 G,2|G2 FD EC|
D2 G,2 G,2|F2 EC DB,|A,G, A,B, CD|EF GA Bc|BG A^F F2|G2 LG2 z2:|

